svg/color/ift.svg

<?xml version="1.0" encoding="UTF-8" ?>
<!DOCTYPE svg PUBLIC "-//W3C//DTD SVG 1.1//EN" "http://www.w3.org/Graphics/SVG/1.1/DTD/svg11.dtd">
<svg width="250pt" height="250pt" viewBox="0 0 250 250" version="1.1" xmlns="http://www.w3.org/2000/svg">
<g id="#f8fbfdff">
<path fill="#f8fbfd" opacity="1.00" d=" M 0.00 0.00 L 115.44 0.00 C 64.24 4.09 17.60 41.47 4.37 91.35 C 2.36 98.30 1.86 105.59 0.00 112.57 L 0.00 0.00 Z" />
<path fill="#f8fbfd" opacity="1.00" d=" M 134.56 0.00 L 250.00 0.00 L 250.00 119.54 C 248.29 106.56 246.42 93.48 241.83 81.15 C 225.51 36.25 181.86 4.24 134.56 0.00 Z" />
<path fill="#f8fbfd" opacity="1.00" d=" M 68.36 54.34 C 78.35 51.62 89.14 60.64 87.99 71.01 C 84.76 107.46 79.00 143.65 75.15 180.04 C 74.66 186.61 70.24 192.80 63.93 194.92 C 54.21 198.77 41.29 189.83 42.96 179.02 C 45.39 149.36 49.84 119.87 53.32 90.31 C 55.56 77.76 52.70 58.76 68.36 54.34 Z" />
<path fill="#f8fbfd" opacity="1.00" d=" M 122.39 54.48 C 143.89 53.35 165.48 54.34 187.01 53.96 C 197.66 52.20 208.53 61.99 206.90 72.91 C 205.21 79.87 199.25 86.61 191.64 86.60 C 174.87 87.65 157.93 86.45 141.29 86.30 C 135.17 90.13 139.37 100.74 136.80 106.84 C 125.45 104.97 112.13 113.69 112.98 126.03 C 112.85 135.96 122.59 142.96 131.88 143.27 C 130.22 157.95 129.98 173.29 125.34 187.33 C 118.76 202.23 94.79 195.78 95.07 179.93 C 99.18 143.63 104.01 107.40 108.21 71.10 C 108.64 63.42 114.10 54.90 122.39 54.48 Z" />
<path fill="#f8fbfd" opacity="1.00" d=" M 126.36 109.34 C 144.56 108.52 162.80 109.25 181.01 108.96 C 190.76 107.28 201.41 115.82 200.07 126.01 C 200.23 132.80 194.57 138.22 188.65 140.68 C 168.15 141.33 147.60 140.99 127.10 140.89 C 121.12 138.55 113.92 133.34 114.97 125.99 C 113.00 118.24 119.93 112.03 126.36 109.34 M 126.26 121.18 C 121.52 123.45 124.89 130.93 129.74 128.82 C 134.47 126.55 131.11 119.06 126.26 121.18 Z" />
<path fill="#f8fbfd" opacity="1.00" d=" M 168.32 242.32 C 214.57 225.68 246.97 180.30 250.00 131.57 L 250.00 250.00 L 135.43 250.00 C 146.43 247.71 157.76 246.50 168.32 242.32 Z" />
<path fill="#f8fbfd" opacity="1.00" d=" M 0.00 138.48 C 2.76 149.20 3.76 160.47 8.41 170.62 C 24.56 214.53 67.48 244.98 113.43 250.00 L 0.00 250.00 L 0.00 138.48 Z" />
</g>
<g id="#398cf6ff">
<path fill="#398cf6" opacity="1.00" d=" M 115.44 0.00 L 134.56 0.00 C 181.86 4.24 225.51 36.25 241.83 81.15 C 246.42 93.48 248.29 106.56 250.00 119.54 L 250.00 131.57 C 246.97 180.30 214.57 225.68 168.32 242.32 C 157.76 246.50 146.43 247.71 135.43 250.00 L 113.43 250.00 C 67.48 244.98 24.56 214.53 8.41 170.62 C 3.76 160.47 2.76 149.20 0.00 138.48 L 0.00 112.57 C 1.86 105.59 2.36 98.30 4.37 91.35 C 17.60 41.47 64.24 4.09 115.44 0.00 M 68.36 54.34 C 52.70 58.76 55.56 77.76 53.32 90.31 C 49.84 119.87 45.39 149.36 42.96 179.02 C 41.29 189.83 54.21 198.77 63.93 194.92 C 70.24 192.80 74.66 186.61 75.15 180.04 C 79.00 143.65 84.76 107.46 87.99 71.01 C 89.14 60.64 78.35 51.62 68.36 54.34 M 122.39 54.48 C 114.10 54.90 108.64 63.42 108.21 71.10 C 104.01 107.40 99.18 143.63 95.07 179.93 C 94.79 195.78 118.76 202.23 125.34 187.33 C 129.98 173.29 130.22 157.95 131.88 143.27 C 122.59 142.96 112.85 135.96 112.98 126.03 C 112.13 113.69 125.45 104.97 136.80 106.84 C 139.37 100.74 135.17 90.13 141.29 86.30 C 157.93 86.45 174.87 87.65 191.64 86.60 C 199.25 86.61 205.21 79.87 206.90 72.91 C 208.53 61.99 197.66 52.20 187.01 53.96 C 165.48 54.34 143.89 53.35 122.39 54.48 M 126.36 109.34 C 119.93 112.03 113.00 118.24 114.97 125.99 C 113.92 133.34 121.12 138.55 127.10 140.89 C 147.60 140.99 168.15 141.33 188.65 140.68 C 194.57 138.22 200.23 132.80 200.07 126.01 C 201.41 115.82 190.76 107.28 181.01 108.96 C 162.80 109.25 144.56 108.52 126.36 109.34 Z" />
<path fill="#398cf6" opacity="1.00" d=" M 126.26 121.18 C 131.11 119.06 134.47 126.55 129.74 128.82 C 124.89 130.93 121.52 123.45 126.26 121.18 Z" />
</g>
</svg>

<?xml version="1.0" encoding="utf-8"?>
<!-- Generator: Adobe Illustrator 26.0.3, SVG Export Plug-In . SVG Version: 6.00 Build 0)  -->
<svg version="1.1" id="Layer_1" xmlns="http://www.w3.org/2000/svg" xmlns:xlink="http://www.w3.org/1999/xlink" x="0px" y="0px"
	 viewBox="0 0 250 250" style="enable-background:new 0 0 250 250;" xml:space="preserve">
<style type="text/css">
	.st0{fill:#F8FBFD;}
	.st1{fill:#398CF6;}
</style>
<g id="_x23_f8fbfdff">
	<path class="st0" d="M68.4,54.3c10-2.7,20.8,6.3,19.6,16.7c-3.2,36.4-9,72.6-12.8,109c-0.5,6.6-4.9,12.8-11.2,14.9
		c-9.7,3.9-22.6-5.1-21-15.9c2.4-29.7,6.9-59.2,10.4-88.7C55.6,77.8,52.7,58.8,68.4,54.3z"/>
	<path class="st0" d="M122.4,54.5c21.5-1.1,43.1-0.1,64.6-0.5c10.7-1.8,21.5,8,19.9,19c-1.7,7-7.6,13.7-15.3,13.7
		c-16.8,1.1-33.7-0.2-50.4-0.3c-6.1,3.8-1.9,14.4-4.5,20.5c-11.4-1.9-24.7,6.9-23.8,19.2c-0.1,9.9,9.6,16.9,18.9,17.2
		c-1.7,14.7-1.9,30-6.5,44.1c-6.6,14.9-30.5,8.4-30.3-7.4c4.1-36.3,8.9-72.5,13.1-108.8C108.6,63.4,114.1,54.9,122.4,54.5z"/>
	<path class="st0" d="M126.4,109.3c18.2-0.8,36.4-0.1,54.6-0.4c9.8-1.7,20.4,6.9,19.1,17.1c0.2,6.8-5.5,12.2-11.4,14.7
		c-20.5,0.7-41,0.3-61.5,0.2c-6-2.3-13.2-7.6-12.1-14.9C113,118.2,119.9,112,126.4,109.3 M126.3,121.2c-4.7,2.3-1.4,9.7,3.5,7.6
		C134.5,126.6,131.1,119.1,126.3,121.2z"/>
</g>
<g id="_x23_398cf6ff">
	<path class="st1" d="M115.4,0h19.1c47.3,4.2,90.9,36.2,107.3,81.2c4.6,12.3,6.5,25.4,8.2,38.4v12c-3,48.7-35.4,94.1-81.7,110.8
		c-10.6,4.2-21.9,5.4-32.9,7.7h-22c-45.9-5-88.9-35.5-105-79.4c-4.6-10.1-5.6-21.4-8.4-32.1v-25.9c1.9-7,2.4-14.3,4.4-21.2
		C17.6,41.5,64.2,4.1,115.4,0 M68.4,54.3c-15.7,4.4-12.8,23.4-15,36c-3.5,29.6-7.9,59.1-10.4,88.7c-1.7,10.8,11.2,19.8,21,15.9
		c6.3-2.1,10.7-8.3,11.2-14.9C79,143.6,84.8,107.5,88,71C89.1,60.6,78.3,51.6,68.4,54.3 M122.4,54.5c-8.3,0.4-13.8,8.9-14.2,16.6
		c-4.2,36.3-9,72.5-13.1,108.8c-0.3,15.9,23.7,22.3,30.3,7.4c4.6-14,4.9-29.4,6.5-44.1c-9.3-0.3-19-7.3-18.9-17.2
		c-0.9-12.3,12.5-21.1,23.8-19.2c2.6-6.1-1.6-16.7,4.5-20.5c16.6,0.1,33.6,1.3,50.4,0.3c7.6,0,13.6-6.7,15.3-13.7
		c1.6-10.9-9.2-20.7-19.9-19C165.5,54.3,143.9,53.3,122.4,54.5 M126.4,109.3c-6.4,2.7-13.4,8.9-11.4,16.7
		c-1.1,7.3,6.2,12.6,12.1,14.9c20.5,0.1,41,0.4,61.5-0.2c5.9-2.5,11.6-7.9,11.4-14.7c1.3-10.2-9.3-18.7-19.1-17.1
		C162.8,109.2,144.6,108.5,126.4,109.3z"/>
	<path class="st1" d="M126.3,121.2c4.8-2.1,8.2,5.4,3.5,7.6C124.9,130.9,121.5,123.4,126.3,121.2z"/>
</g>
</svg>
